packages/foundations/assets/icons/functional/images/social/star_20_filled.svg

<svg width="20" height="20" viewBox="0 0 20 20" fill="none" xmlns="http://www.w3.org/2000/svg">
<g clip-path="url(#clip0_2214_6247)">
<path fill-rule="evenodd" clip-rule="evenodd" d="M14.3125 17.6562C14.1562 17.6562 14 17.5938 13.875 17.5312L10 15.5L6.125 17.5312C5.9688 17.625 5.8438 17.6562 5.6562 17.6562C5.0625 17.6562 4.5938 17.0625 4.6875 16.5L5.4375 12.1875L2.3125 9.15621C2.125 8.96881 2 8.68751 2 8.43751C2 8.03121 2.2812 7.53121 2.8438 7.43751L7.1875 6.81251L9.0938 2.90621C9.25 2.56251 9.625 2.34381 10 2.34381C10.375 2.34381 10.75 2.56251 10.9062 2.90621L12.8125 6.81251L17.1562 7.43751C17.625 7.50001 18 7.90621 18 8.43751C18 8.68751 17.875 8.96881 17.6875 9.15621L14.5625 12.1875L15.3125 16.5C15.4062 17.125 14.9375 17.6562 14.3125 17.6562Z" fill="#1A1C1F"/>
</g>
<defs>
<clipPath id="clip0_2214_6247">
<rect width="20" height="20" fill="white"/>
</clipPath>
</defs>
</svg>

<svg xmlns="http://www.w3.org/2000/svg" width="20" height="20" fill="none"><g clip-path="url(#a)"><path fill="#1A1C1F" fill-rule="evenodd" d="M14.313 17.656c-.157 0-.313-.062-.438-.125L10 15.5l-3.875 2.031a.8.8 0 0 1-.469.125c-.593 0-1.062-.593-.968-1.156l.75-4.312-3.125-3.032A1.08 1.08 0 0 1 2 8.438c0-.407.281-.907.844-1l4.344-.625 1.906-3.907c.156-.343.531-.562.906-.562s.75.219.906.562l1.906 3.907 4.344.625c.469.062.844.468.844 1 0 .25-.125.53-.312.718l-3.125 3.031.75 4.313a.996.996 0 0 1-1 1.156" clip-rule="evenodd"/></g><defs><clipPath id="a"><path fill="#fff" d="M0 0h20v20H0z"/></clipPath></defs></svg>
